assets/imgs/carrito-icon.svg

<svg height="35.99" viewBox="0 0 29.115 35.99" width="29.115" xmlns="http://www.w3.org/2000/svg"><g fill="#772ce8"><path d="m88.239 5.206h-2.7v-.043a5.233 5.233 0 0 0 -7.439-4.675 5.233 5.233 0 0 0 -7.439 4.675v.043h-3.833a.6.6 0 0 0 -.6.6v20.84a3.87 3.87 0 0 0 3.892 3.844h14.827a3.87 3.87 0 0 0 3.887-3.844v-20.846a.6.6 0 0 0 -.6-.6zm-7.92-4.015a4.007 4.007 0 0 1 4.033 3.972v.043h-3.24v-.043a5.126 5.126 0 0 0 -1.755-3.857 4.085 4.085 0 0 1 .963-.114zm-2.219.655a3.957 3.957 0 0 1 1.82 3.317v.043h-3.634v-.043a3.957 3.957 0 0 1 1.814-3.317zm-6.245 3.317a4.007 4.007 0 0 1 4.033-3.972 4.085 4.085 0 0 1 .963.114 5.126 5.126 0 0 0 -1.751 3.858v.043h-3.24zm-4.431 21.483v-20.246h3.24v3.815a.6.6 0 1 0 1.191 0v-3.815h8.065v3.815a.6.6 0 0 0 1.191 0v-3.815h3.24v22.9h-14.231a2.678 2.678 0 0 1 -2.7-2.653zm20.219 0a2.667 2.667 0 0 1 -2.1 2.588v-22.834h2.1z" transform="translate(-66.233 5.5)"/><path d="m150.5 443.383h-9.26a.6.6 0 0 0 0 1.191h9.26a.6.6 0 0 0 0-1.191z" transform="translate(-136.214 -411.479)"/><path d="m148.1 236.7a2.659 2.659 0 0 0 -2.194 1.212 4.007 4.007 0 0 0 -.261.423 4 4 0 0 0 -.261-.423 2.639 2.639 0 0 0 -4.213-.3 3.175 3.175 0 0 0 -.764 2.109 3.889 3.889 0 0 0 1.071 2.551 36.626 36.626 0 0 0 4.167 3.276 36.621 36.621 0 0 0 4.167-3.276 3.889 3.889 0 0 0 1.071-2.551 3.175 3.175 0 0 0 -.764-2.109 2.654 2.654 0 0 0 -2.019-.912z" transform="translate(-135.987 -217.105)"/></g><circle cx="21.115" cy="8" fill="#32d1f7" r="8"/><text fill="#fff" font-family="OpenSans-Bold, Open Sans" font-size="9" font-weight="700" transform="translate(18.115 11)"><tspan x="0" y="0">1</tspan></text></svg>

<svg xmlns="http://www.w3.org/2000/svg" width="29.115" height="35.99" viewBox="0 0 29.115 35.99"><defs><style>.a{fill:#772ce8;}.b{fill:#32d1f7;}.c{fill:#fff;font-size:9px;font-family:OpenSans-Bold, Open Sans;font-weight:700;}</style></defs><g transform="translate(-1277.885 18)"><g transform="translate(1277.885 -12.5)"><g transform="translate(0)"><path class="a" d="M88.239,5.206h-2.7V5.163A5.233,5.233,0,0,0,78.1.488a5.233,5.233,0,0,0-7.439,4.675v.043H66.828a.6.6,0,0,0-.6.6V26.646A3.87,3.87,0,0,0,70.12,30.49H84.947a3.87,3.87,0,0,0,3.887-3.844V5.8a.6.6,0,0,0-.6-.6Zm-7.92-4.015a4.007,4.007,0,0,1,4.033,3.972v.043h-3.24V5.163a5.126,5.126,0,0,0-1.755-3.857,4.085,4.085,0,0,1,.963-.114ZM78.1,1.846A3.957,3.957,0,0,1,79.92,5.163v.043H76.286V5.163A3.957,3.957,0,0,1,78.1,1.846ZM71.855,5.163a4.007,4.007,0,0,1,4.033-3.972,4.085,4.085,0,0,1,.963.114A5.126,5.126,0,0,0,75.1,5.163v.043h-3.24ZM67.424,26.646V6.4h3.24v3.815a.6.6,0,1,0,1.191,0V6.4H79.92v3.815a.6.6,0,0,0,1.191,0V6.4h3.24V29.3H70.12a2.678,2.678,0,0,1-2.7-2.653Zm20.219,0a2.667,2.667,0,0,1-2.1,2.588V6.4h2.1Z" transform="translate(-66.233 0)"/><path class="a" d="M150.5,443.383H141.24a.6.6,0,0,0,0,1.191H150.5a.6.6,0,0,0,0-1.191Z" transform="translate(-136.214 -416.979)"/></g><path class="a" d="M148.1,236.7a2.659,2.659,0,0,0-2.194,1.212,4.007,4.007,0,0,0-.261.423,4,4,0,0,0-.261-.423,2.639,2.639,0,0,0-4.213-.3,3.175,3.175,0,0,0-.764,2.109,3.889,3.889,0,0,0,1.071,2.551,36.626,36.626,0,0,0,4.167,3.276,36.621,36.621,0,0,0,4.167-3.276,3.889,3.889,0,0,0,1.071-2.551,3.175,3.175,0,0,0-.764-2.109A2.654,2.654,0,0,0,148.1,236.7Z" transform="translate(-135.987 -222.605)"/></g><g transform="translate(1291.206 -18.288)"><circle class="b" cx="8" cy="8" r="8" transform="translate(-0.206 0.288)"/><text class="c" transform="translate(4.794 11.288)"><tspan x="0" y="0">1</tspan></text></g></g></svg>
